X:1
T:Herald the Gospel
T:Herald the Gospel
T:F. L. Potter, arrranged by Robert E. McNeill
T:Martin Wells Knapp, 1901
T:Public Domain Courtesy of the Cyber Hymnal™
T:Public Domain Courtesy of the Cyber Hymnal™
C:F. L. Potter, arrranged by Robert E. McNeill
Z:Public Domain
Z:Courtesy of the Cyber Hymnal™
%%score ( 1 2 ) ( 3 4 )
L:1/8
Q:1/4=92
M:6/8
K:Eb
V:1 treble 
V:2 treble 
V:3 bass 
V:4 bass 
V:1
 [EG]>[EG][EG] [EG][DF]E | [Ec]>[Ec][Ec] [EB]3 | [DB][DF]>[DG] [DB][DA][DF] | [EG]3- [EG]2 z | %4
w: 1.~Wan- der- ing far from the|Shep- herd a- way,|Per- ish- ing far from the|fold, *|
w: 2.~Je- sus, to save them, from|Heav- en came down;|Suf- fered for them on the|tree, *|
w: 3.~Speed with the Gos- pel, His|man- date o- bey;|Preach it to all of the|world; *|
w: 4.~In- di- a’s wait- ing the|mes- sage to hear,|Mes- sage of joy and of|love; *|
 [EG]>[EG][EG] [EG][DF]E | [Ec]>[Ec][Ec] [EB]3 | [DB][DF]>[DG] [DB][DA][DF] | E3- E2 z | %8
w: Ma- ny the sheep that are|dy- ing to- day,|Dy- ing a- way in the|cold. *|
w: Leav- ing His heav- en- ly|man- sion and crown;|Won- der- ful! How could it|be? *|
w: Her- ald it quick- ly, no|long- er de- lay;|Tell it to all of the|world; *|
w: Af- ri- ca’s wai- ting for|Je- sus to cheer,|Tid- ings from Heav- en a-|bove; *|
 [DA]>[DA][DA] [DA][EG][DF] | [EG][EG][FA] [EB]3 | [DA]>[DA][DA] [DA][EG][DF] | %11
w: Wan- der- ing out on the|mount- ain so drear;|Dy- ing a- way from the|
w: Leav- ing His scep- ter and|ci- ty of gold;|Wel- com- ing sor- row and|
w: Preach it, e- ter- ni- ty’s|night draw- eth near;|Preach it, for news of His|
w: Isles of the o- cean are|wait- ing for light;|Ja- pan and Chi- na are|
 [EG][EG][FA] [EB]3 | [EB]>[EB][EB] [EB][EA][EG] | [Ec][Ec][Ec] [EB]3 | %14
w: Shep- herd so dear;|Long- ing, it may be, His|sweet voice to hear;|
w: tor- ture un- told;|All to bring wan- der- ers|back to the fold;|
w: com- ing we hear;|Preach it, for soon our Lord|King will ap- pear;|
w: merg- ing from night,|Wait- ing to wel- come the|heav- en- ly light,|
 [DB][DF]>[DG] [DB][DA][DF] | E3- E2 z ||"^Refrain" [EB]>[EB][EB] [EB]2 z | [Ec]>[Ec][Ec] [Ec]2 z | %18
w: Dy- ing a- way from the|fold. *|||
w: Dy- ing for you and for|me. *|||
w: Preach it to all of the|world. *|Per- ish- ing now,|per- ish- ing now,|
w: Com- ing from Heav- en a-|bove. *|||
 [EB]>[EB][EB] [DB][EB][FB] | [EB]3- [EB]2 z | [EB]>[EB][EB] [EB]2 z | [Ec][Ec][Ec] [Ec]2 z | %22
w: ||||
w: ||||
w: Per- ish- ing far from the|fold; *|Per- ish- ing now,|per- ish- ing now,|
w: ||||
 [DB]>[DF][DG] [DB]"^riten."[DA][DF] | E3- E2 z |] %24
w: ||
w: ||
w: Per- ish- ing far from the|fold; *|
w: ||
V:2
 x5 E | x6 | x6 | x6 | x5 E | x6 | x6 | E3- E2 x | x6 | x6 | x6 | x6 | x6 | x6 | x6 | E3- E2 x || %16
 x6 | x6 | x6 | x6 | x6 | x6 | x6 | E3- E2 x |] %24
V:3
 [E,B,]>[E,B,][E,B,] [E,B,][E,A,][E,G,] | A,>A,A, G,3 | %2
 [B,,F,][B,,B,]>[B,,B,] [B,,B,][B,,B,][B,,B,] | [E,B,]3- [E,B,]2 z | %4
 [E,B,]>[E,B,][E,B,] [E,B,][E,A,][E,G,] | A,>A,A, G,3 | %6
 [B,,F,][B,,B,]>[B,,B,] [B,,B,][B,,B,][B,,B,] | [E,G,]3- [E,G,]2 z | %8
 [B,,B,]>[B,,B,][B,,B,] [B,,B,][B,,B,][B,,B,] | [E,B,][E,B,][E,B,] [E,G,]3 | %10
 [B,,B,]>[B,,B,][B,,B,] [B,,B,][B,,B,][B,,B,] | [E,B,][E,B,][E,B,] [E,G,]3 | %12
 [E,G,]>[E,G,][E,G,] [E,G,][E,C][E,B,] | A,A,A, G,3 | %14
 [B,,F,][B,,B,]>[B,,B,] [B,,B,][B,,B,][B,,A,] | [E,G,]3- [E,G,]2 z || %16
 [E,G,]>[E,G,][E,G,] [E,G,]2 z | [A,,A,]>[A,,A,][A,,A,] [A,,A,]2 z | %18
 [B,,G,]>[B,,G,][B,,G,] [B,,F,][B,,G,][B,,A,] | [E,G,]3- [E,G,]2 z | %20
 [E,G,]>[E,G,][E,G,] [E,G,]2 z | [A,,A,][A,,A,][A,,A,] [A,,A,]2 z | %22
 [B,,F,]>[B,,B,][B,,B,] [B,,B,][B,,B,][B,,A,] | [E,G,]3- [E,G,]2 z |] %24
V:4
 x6 | A,>A,A, G,3 | x6 | x6 | x6 | A,>A,A, G,3 | x6 | x6 | x6 | x6 | x6 | x6 | x6 | A,A,A, G,3 | %14
 x6 | x6 || x6 | x6 | x6 | x6 | x6 | x6 | x6 | x6 |] %24

